X:949
T:Reel 949
M:4/4
K:Gmaj
L:1/8
B>A (3BAG BdAe| (3Bcd Ad cdfg| (3dBd AG  (3Bcd ge|fdcA BGG2:|fgab c'2bc'| (3bc'd' bg abgb|afgb  (3fef ab|c'aga c'bc'agb|c'bc'a d'bc'abg| (3ggg ab c'2bc'|d'bc'a bgag|fdcA AGG2|
